Sources/FrostedUI/Resources/Icons.xcassets/sad24.imageset/sad-24.svg

<svg width="24" height="24" viewBox="0 0 24 24" fill="none" xmlns="http://www.w3.org/2000/svg" data-fui-icon="true">
  <g clip-path="url(#clip0_882_971)">
    <path
      d="M12 0C18.4203 1.41588e-05 24 5.5797 24 12C24 18.4203 18.4203 24 12 24C5.5797 24 3.31525e-06 18.4203 0 12C3.52246e-06 5.5797 5.5797 1.4366e-05 12 0ZM12 1.5C6.40813 1.50001 1.5 6.40813 1.5 12C1.5 17.5919 6.40813 22.5 12 22.5C17.5919 22.5 22.5 17.5919 22.5 12C22.5 6.40813 17.5919 1.50001 12 1.5ZM12 15.25C13.706 15.25 14.9056 15.8955 15.6758 16.5557C16.0568 16.8823 16.3305 17.2095 16.5107 17.459C16.601 17.5839 16.668 17.6909 16.7148 17.7695C16.7383 17.8089 16.7572 17.8417 16.7705 17.8662C16.7771 17.8784 16.7829 17.8884 16.7871 17.8965C16.7892 17.9005 16.7905 17.9043 16.792 17.9072L16.7949 17.9131C16.7951 17.9134 16.7958 17.9146 16.2305 18.1973L16.7959 17.915C16.9808 18.2854 16.8303 18.7357 16.46 18.9209C16.1128 19.0942 15.6956 18.9732 15.4922 18.6523L15.457 18.5908L15.4561 18.5898L15.4541 18.5859V18.585L15.4531 18.583C15.4485 18.5745 15.4397 18.5589 15.4268 18.5371C15.4004 18.4928 15.3559 18.4237 15.2939 18.3379C15.1695 18.1656 14.9743 17.9301 14.6992 17.6943C14.1569 17.2296 13.2939 16.75 12 16.75C10.7061 16.75 9.84306 17.2296 9.30078 17.6943C9.02567 17.9301 8.83051 18.1656 8.70605 18.3379C8.64408 18.4237 8.59964 18.4928 8.57324 18.5371C8.56026 18.5589 8.55149 18.5745 8.54688 18.583L8.54492 18.585V18.5879L8.54395 18.5898L8.54297 18.5908L8.50781 18.6523C8.30436 18.9732 7.88723 19.0942 7.54004 18.9209C7.16969 18.7357 7.01916 18.2854 7.2041 17.915L7.76953 18.1973C7.21879 17.9218 7.2043 17.9146 7.2041 17.9141L7.20508 17.9131L7.20801 17.9072C7.20952 17.9043 7.2108 17.9005 7.21289 17.8965C7.21711 17.8884 7.22287 17.8784 7.22949 17.8662C7.24283 17.8417 7.26171 17.8089 7.28516 17.7695C7.33198 17.6909 7.39903 17.5839 7.48926 17.459C7.66947 17.2095 7.94319 16.8823 8.32422 16.5557C9.09445 15.8955 10.294 15.25 12 15.25ZM7.2002 10.2998C7.86285 10.2999 8.40039 10.8373 8.40039 11.5C8.40039 12.1627 7.86285 12.7001 7.2002 12.7002C6.53745 12.7002 6 12.1627 6 11.5C6 10.8373 6.53745 10.2998 7.2002 10.2998ZM16.7998 10.2998C17.4625 10.2998 18 10.8373 18 11.5C18 12.1627 17.4625 12.7002 16.7998 12.7002C16.1372 12.7001 15.5996 12.1627 15.5996 11.5C15.5996 10.8373 16.1372 10.2999 16.7998 10.2998Z"
      fill="currentColor"
    />
  </g>
  <defs>
    <clipPath id="clip0_882_971"><path fill="currentColor" d="M0 0H24V24H0z" /></clipPath>
  </defs>
</svg>

<svg xmlns="http://www.w3.org/2000/svg" width="24" height="24" fill="none" data-fui-icon="true" viewBox="0 0 24 24"><g clip-path="url(#a)"><path fill="currentColor" d="M12 0c6.42 0 12 5.58 12 12s-5.58 12-12 12S0 18.42 0 12 5.58 0 12 0m0 1.5C6.408 1.5 1.5 6.408 1.5 12S6.408 22.5 12 22.5 22.5 17.592 22.5 12 17.592 1.5 12 1.5m0 13.75c1.706 0 2.906.646 3.676 1.306.38.326.655.653.835.903a4 4 0 0 1 .26.407l.016.03.005.011.003.006s0 .002-.565.284l.566-.282a.75.75 0 0 1-1.304.737l-.035-.061v-.001l-.003-.004v-.003l-.027-.046a3.739 3.739 0 0 0-.728-.843c-.542-.464-1.405-.944-2.699-.944s-2.157.48-2.7.944a3.7 3.7 0 0 0-.727.843l-.026.046-.002.002v.003l-.001.002h-.001l-.035.062a.75.75 0 0 1-1.304-.737l.566.282-.566-.283h.001l.003-.007.005-.01.016-.03.056-.098c.047-.078.114-.185.204-.31.18-.25.454-.577.835-.903.77-.66 1.97-1.306 3.676-1.306M7.2 10.3a1.2 1.2 0 1 1 0 2.4 1.2 1.2 0 0 1 0-2.4m9.6 0a1.2 1.2 0 1 1 0 2.4 1.2 1.2 0 0 1 0-2.4"/></g><defs><clipPath id="a"><path fill="currentColor" d="M0 0h24v24H0z"/></clipPath></defs></svg>
